lib/functional/communication/star-half.svg

<svg xmlns="http://www.w3.org/2000/svg" fill="none" stroke="currentColor" aria-hidden="true" viewBox="0 0 32 32"><g id="Icon-StarHalf"><g clip-path="url(#clip0_4_163)"><g id="size=md (32px)"><path id="Vector" stroke-linecap="round" stroke-linejoin="round" stroke-width="2" d="M16 3V23.675"/><path id="Vector_2" stroke-linecap="round" stroke-linejoin="round" stroke-width="2" d="M27.525 14.575L28.6125 13.6625C29.35 13.05 28.975 11.8125 28.0125 11.75L26.575 11.6625"/><path id="Vector_3" stroke-linecap="round" stroke-linejoin="round" stroke-width="2" d="M23.0125 21.1125L22.6 19.475C22.5507 19.2761 22.5585 19.0673 22.6226 18.8727C22.6868 18.6781 22.8046 18.5056 22.9625 18.375L24.2125 17.325"/><path id="Vector_4" stroke-linecap="round" stroke-linejoin="round" stroke-width="2" d="M22.275 11.375L20.6375 11.275C20.4363 11.2633 20.2428 11.1932 20.0808 11.0733C19.9187 10.9535 19.7951 10.789 19.725 10.6L19.0875 9L16.975 3.675C16.9022 3.47488 16.7696 3.302 16.5952 3.17984C16.4207 3.05768 16.2129 2.99216 16 2.99216C15.787 2.99216 15.5793 3.05768 15.4048 3.17984C15.2304 3.302 15.0978 3.47488 15.025 3.675L12.275 10.6C12.2049 10.789 12.0813 10.9535 11.9192 11.0733C11.7572 11.1932 11.5637 11.2633 11.3625 11.275L3.9875 11.75C3.025 11.8125 2.65 13.05 3.3875 13.6625L9.0375 18.375C9.19542 18.5056 9.31323 18.6781 9.37737 18.8727C9.4415 19.0673 9.44935 19.2761 9.4 19.475L7.7125 26.125C7.425 27.25 8.625 28.1625 9.5875 27.55L15.45 23.8375C15.6144 23.733 15.8052 23.6774 16 23.6774C16.1948 23.6774 16.3856 23.733 16.55 23.8375L17.9875 24.75"/><path id="Vector_5" stroke-linecap="round" stroke-linejoin="round" stroke-width="2" d="M21.625 27.0625L22.85 27.8375C23.6625 28.35 24.6625 27.5875 24.425 26.65L24.075 25.2875"/></g></g></g><defs><clipPath id="clip0_4_163"><rect width="32" height="32" fill="white" rx="5"/></clipPath></defs></svg>

<svg xmlns="http://www.w3.org/2000/svg" fill="none" stroke="currentColor" aria-hidden="true" viewBox="0 0 32 32"><path stroke-linecap="round" stroke-linejoin="round" stroke-width="2" d="M16 3v20.675m11.525-9.1 1.088-.912c.737-.613.362-1.85-.6-1.913l-1.438-.088m-3.563 9.45-.412-1.637a1.087 1.087 0 0 1 .362-1.1l1.25-1.05m-1.937-5.95-1.637-.1a1.037 1.037 0 0 1-.913-.675L19.087 9l-2.112-5.325a1.038 1.038 0 0 0-1.95 0l-2.75 6.925a1.038 1.038 0 0 1-.912.675l-7.376.475c-.962.063-1.337 1.3-.6 1.912l5.65 4.713a1.087 1.087 0 0 1 .363 1.1l-1.688 6.65c-.287 1.125.913 2.038 1.875 1.425l5.863-3.713a1.025 1.025 0 0 1 1.1 0l1.438.913m3.637 2.313 1.225.774c.813.513 1.813-.25 1.575-1.187l-.35-1.362"/></svg>
